src/telerik-icons/solid/file-ascx.svg

<?xml version="1.0" encoding="utf-8"?>
<svg xmlns="http://www.w3.org/2000/svg" width="512" height="512" viewBox="0 0 512 512">
  <path d="M384 224h-96v-32h96v32zm0 160h-96v-32h96v32zM256 256H128v-96h128v96zm0 160H128v-96h128v96zm96-384H96c-17.7 0-32 14.3-32 32v384c0 17.7 14.3 32 32 32h320c17.7 0 32-14.3 32-32V128l-96-96zm64 416H96V64h224v96h96v288z"/>
</svg>

<?xml version="1.0" encoding="utf-8"?>
<!-- Generator: Adobe Illustrator 19.2.1, SVG Export Plug-In . SVG Version: 6.00 Build 0)  -->
<svg xmlns="http://www.w3.org/2000/svg" width="512" height="512" viewBox="0 0 512 512">
<path d="M384,224h-96v-32h96V224z M384,384h-96v-32h96V384z M256,256H128v-96h128V256z M256,416H128v-96h128V416z M352,32H96
	c-17.7,0-32,14.3-32,32v384c0,17.7,14.3,32,32,32h320c17.7,0,32-14.3,32-32V128L352,32z M416,448H96V64h224v96h96V448z" />
</svg>
